sources/design/Outline/൳.svg

<svg:svg xmlns:cc="http://creativecommons.org/ns#" xmlns:dc="http://purl.org/dc/elements/1.1/" xmlns:inkscape="http://www.inkscape.org/namespaces/inkscape" xmlns:rdf="http://www.w3.org/1999/02/22-rdf-syntax-ns#" xmlns:sodipodi="http://sodipodi.sourceforge.net/DTD/sodipodi-0.dtd" xmlns:svg="http://www.w3.org/2000/svg" xml:space="preserve" width="1000" height="1000" version="1.1" style="clip-rule:evenodd;fill-rule:evenodd;image-rendering:optimizeQuality;shape-rendering:geometricPrecision;text-rendering:geometricPrecision" viewBox="0 0 1000 1000" id="svg10" sodipodi:docname="൳.svg" inkscape:version="1.0.2 (e86c870879, 2021-01-15)"><svg:metadata id="metadata14"><rdf:RDF><cc:Work rdf:about=""><dc:format>image/svg+xml</dc:format><dc:type rdf:resource="http://purl.org/dc/dcmitype/StillImage" /><dc:title /></cc:Work></rdf:RDF></svg:metadata><sodipodi:namedview pagecolor="#ffffff" bordercolor="#666666" borderopacity="1" objecttolerance="10" gridtolerance="10" guidetolerance="10" inkscape:pageopacity="0" inkscape:pageshadow="2" inkscape:window-width="1920" inkscape:window-height="1007" id="namedview12" showgrid="false" inkscape:zoom="0.9588368" inkscape:cx="187.18615" inkscape:cy="483.13539" inkscape:window-x="1920" inkscape:window-y="0" inkscape:window-maximized="1" inkscape:current-layer="svg10" showguides="true" inkscape:guide-bbox="true" inkscape:document-rotation="0" inkscape:snap-to-guides="true" inkscape:pagecheckerboard="0"><sodipodi:guide position="0,1000" orientation="0,1" id="guide16" inkscape:label="" inkscape:locked="true" inkscape:color="rgb(0,0,255)" /><sodipodi:guide position="1763.3122,2036.1693" orientation="1000,0" id="guide18" /><sodipodi:guide position="0,200" orientation="0,1" id="guide20" inkscape:label="base" inkscape:locked="true" inkscape:color="rgb(0,0,255)" /><inkscape:grid type="xygrid" id="grid24" originx="-473.37552" originy="-489.69235" /><sodipodi:guide position="0,0" orientation="0,1" id="guide34" inkscape:label="bottom" inkscape:locked="true" inkscape:color="rgb(0,0,255)" /><sodipodi:guide position="225.05109,1693.3186" orientation="0,1" id="guide44" inkscape:label="" inkscape:locked="false" inkscape:color="rgb(0,0,255)" /><sodipodi:guide position="0,900" orientation="0,1" id="guide46" inkscape:label="" inkscape:locked="true" inkscape:color="rgb(0,0,255)" /><sodipodi:guide position="661.03055,469.83468" orientation="-1,0" id="guide841" inkscape:label="width" inkscape:locked="false" inkscape:color="rgb(0,0,255)" /><sodipodi:guide position="0,1000" orientation="0,1000" id="guide860" /><sodipodi:guide position="1000,1000" orientation="1000,0" id="guide862" /><sodipodi:guide position="1000,0" orientation="0,-1000" id="guide864" /><sodipodi:guide position="0,0" orientation="-1000,0" id="guide866" /></sodipodi:namedview>
 <svg:defs id="defs4"><inkscape:path-effect effect="fillet_chamfer" id="path-effect860" is_visible="true" lpeversion="1" satellites_param="F,0,0,1,0,0,0,1 @ F,0,0,1,0,0,0,1 @ F,0,0,1,0,0,0,1 @ F,0,0,1,0,0,0,1 @ F,0,0,1,0,0,0,1 @ F,0,0,1,0,0,0,1 @ F,0,0,1,0,0,0,1 @ F,0,0,1,0,0,0,1 @ F,0,0,1,0,0,0,1 @ F,0,0,1,0,0,0,1 @ F,0,0,1,0,0,0,1 @ F,0,0,1,0,0,0,1 @ F,0,0,1,0,0,0,1 @ F,0,1,1,0,14.443641,0,1 @ F,0,1,1,0,14.443641,0,1 @ F,0,0,1,0,0,0,1 @ F,0,0,1,0,0,0,1 @ F,0,0,1,0,0,0,1 @ F,0,0,1,0,0,0,1 @ F,0,0,1,0,0,0,1 @ F,0,0,1,0,0,0,1 @ F,0,0,1,0,0,0,1 @ F,0,0,1,0,0,0,1 @ F,0,0,1,0,0,0,1 @ F,0,0,1,0,0,0,1 @ F,0,0,1,0,0,0,1" unit="px" method="auto" mode="F" radius="0" chamfer_steps="1" flexible="false" use_knot_distance="true" apply_no_radius="true" apply_with_radius="true" only_selected="true" hide_knots="false" /><inkscape:path-effect effect="spiro" id="path-effect861" is_visible="true" lpeversion="1" /><inkscape:path-effect effect="spiro" id="path-effect873" is_visible="true" lpeversion="1" /><inkscape:path-effect effect="spiro" id="path-effect859" is_visible="true" lpeversion="1" /><inkscape:path-effect effect="spiro" id="path-effect862" is_visible="true" lpeversion="1" /><inkscape:path-effect effect="spiro" id="path-effect1521" is_visible="true" lpeversion="1" /><inkscape:path-effect effect="spiro" id="path-effect858" is_visible="true" lpeversion="1" /><inkscape:path-effect effect="spiro" id="path-effect854" is_visible="true" lpeversion="1" />
  <svg:style type="text/css" id="style2">
   
    .fil0 {fill:#EF7F1A;fill-rule:nonzero}
   
  </svg:style>
 <inkscape:path-effect effect="spiro" id="path-effect1214" is_visible="true" lpeversion="1" /><inkscape:path-effect effect="spiro" id="path-effect1195" is_visible="true" lpeversion="1" /><inkscape:path-effect effect="spiro" id="path-effect992" is_visible="true" lpeversion="1" /><inkscape:path-effect effect="spiro" id="path-effect287" is_visible="true" lpeversion="1" /><inkscape:path-effect effect="spiro" id="path-effect1032" is_visible="true" lpeversion="1" /><inkscape:path-effect effect="spiro" id="path-effect1218" is_visible="true" lpeversion="1" /><inkscape:path-effect effect="spiro" id="path-effect309" is_visible="true" lpeversion="1" /><inkscape:path-effect effect="spiro" id="path-effect1176" is_visible="true" lpeversion="1" /><inkscape:path-effect effect="spiro" id="path-effect1026" is_visible="true" lpeversion="1" /><inkscape:path-effect effect="spiro" id="path-effect1030" is_visible="true" lpeversion="1" /></svg:defs>
 
<svg:g id="path859"><svg:path style="color:#000000;clip-rule:nonzero;fill:#1a5fb4;fill-rule:nonzero;stroke-linecap:round;stroke-linejoin:round;-inkscape-stroke:none;paint-order:fill stroke markers;shape-rendering:auto" d="M 651.03711,313.67773 C 647.93843,313.49198 644.91005,313.64043 642.07031,314.0918 C 604.2465,320.10343 566.14661,324.39567 527.93359,326.94727 C 437.75705,332.96862 345.25793999999996,329.24215 251.10742,333.54687 C 197.71328,335.98815 138.63495,341.18219 85.957031,371.44336 C 49.664979,392.29156 20.41377,423.37326 0.71289062,459.5332 C -18.953122,495.62914 -28.855354,536.10446 -29.626953,576.51953 C -30.768795,636.32726 -11.643108999999999,696.39441 26.396484,743.56055 C 64.543622,790.86003 120.55795,823.1375400000001 181.70702999999997,829.9394500000001 C 245.19222999999997,837.0012200000001 310.17917,815.79772 356.95312,772.01367 C 403.77096,728.1885500000001 429.38913,664.31556 425.125,600.1367200000001 C 422.45761,559.9901400000001 408.51081,521.8525800000001 387.45312,488.9472700000001 C 385.55958000000004,485.9883600000001 383.55105000000003,483.1257600000001 381.55078000000003,480.2558600000001 C 458.38251,484.6522300000001 534.72651,498.0852700000001 608.38086,520.3808600000001 C 631.20371,527.2894600000001 658.46416,511.1553700000001 663.0761699999999,487.5214800000001 L 687.7089799999999,361.2968700000001 C 689.9245499999998,349.9434000000001 687.2795399999999,335.30744000000016 677.5507799999999,325.3085900000001 C 670.25421,317.8094600000001 660.3331599999999,314.23500000000007 651.0371099999999,313.6777300000001 L 651.03711,313.67773 M 623.41797,377.48437 L 607.7421899999999,457.81836 C 527.0993,434.99835 443.74352,421.87824 359.96875,419.12695 C 347.97614,418.73310000000004 335.81973,418.65121000000005 323.60742,418.78125 C 318.47814999999997,414.65212 313.28057,410.62517 307.95117,406.82031 C 300.78423,401.70356 293.40305,396.90116 285.87891,392.33984 C 366.38796,390.10353 448.55948,392.38144 531.93164,386.81444999999997 C 562.52443,384.77167999999995 593.04169,381.64671999999996 623.41797,377.48436999999996 L 623.41797,377.48437 M 198.58007999999995,417.22656 C 208.00774999999996,420.48841 217.25339999999994,424.27818 226.30663999999996,428.48633 C 217.02754999999996,430.41532 207.79425999999995,432.70302000000004 198.60936999999996,435.36719 C 192.32697999999996,432.93571 185.95446999999996,430.74226 179.51757999999995,428.75586 L 198.58007999999995,417.22656 M 69.525391,463.98828 A 30.003,30.003 0.0 0,0 93.365234,475.96875 C 99.530522,475.91155 105.70577,476.14799 111.86914,476.61719 C 103.39768000000001,483.0621 95.307193,490.24475 87.894531,498.45312 C 65.516054,523.2338100000001 50.038646,556.29683 51.396484,592.62109 C 52.717067,627.94872 69.878842,659.7677699999999 95.230469,681.97852 C 120.31133,703.95204 151.77879000000001,715.5364 183.28516000000002,718.3125 C 219.42049000000003,721.49647 257.51091,713.15241 288.17187,689.97461 C 303.48508000000004,678.39877 316.40984000000003,663.45673 325.32422,645.81641 C 334.26283,628.12812 338.88977,608.2236 337.94531,587.86328 C 336.82738,563.76328 328.12489,541.85258 316.02539,523.44336 C 304.98175000000003,506.64062 291.30920000000003,493.03337999999997 277.20312,481.38086 C 285.40155,480.54532 293.67552,479.92849 302.01758,479.50781 C 315.38408,492.19685 327.23546,506.16196 336.91602,521.2890600000001 C 353.07137,546.5338700000001 363.34832,575.37373 365.25781,604.11328 C 368.26552,649.38184 349.21215,697.07608 315.95117,728.21094 C 282.64632,759.3868600000001 233.87099,775.37324 188.33983999999998,770.3085900000001 C 144.21891,765.4008100000001 101.44803999999998,741.0419600000001 73.10156199999999,705.89453 C 44.64754099999999,670.6137600000001 29.481340999999986,623.75631 30.361327999999986,577.6640600000001 C 30.959383999999986,546.3388900000001 38.73769499999999,515.1528500000001 53.400390999999985,488.24023000000005 C 58.051315999999986,479.7037 63.509852999999985,471.61363000000006 69.52539099999998,463.98828000000003 L 69.525391,463.98828 M 195.26758,499.625 C 209.75636,506.73016 223.55942000000002,515.16986 236.10156,525.17187 C 248.21880000000002,534.83505 258.55884000000003,545.2472300000001 265.88672,556.39648 C 273.12686,567.41225 277.49609000000004,579.57082 278.00977,590.64453 C 278.4413,599.94748 276.22802,609.9408500000001 271.77344,618.75586 C 267.29462,627.61883 260.36546,635.78017 251.99023,642.11133 C 235.27433,654.74753 211.57655,660.5737799999999 188.55078,658.5449199999999 C 168.31384,656.7617899999999 148.75694,649.10384 134.76758,636.8476599999999 C 121.04897000000001,624.8286899999999 111.97329,606.9588099999999 111.35352,590.3789099999999 C 110.70913,573.1404699999999 118.87849,553.6673299999999 132.42383,538.6679699999999 C 146.28689,523.3167799999999 165.92824000000002,511.3026199999999 187.98047000000003,502.26952999999986 C 190.36517000000003,501.29269999999985 192.84938000000002,500.53002999999984 195.26758000000004,499.6249999999999 L 195.26758,499.625" id="path23697" /></svg:g></svg:svg>

<svg:svg xmlns:cc="http://creativecommons.org/ns#" xmlns:dc="http://purl.org/dc/elements/1.1/" xmlns:inkscape="http://www.inkscape.org/namespaces/inkscape" xmlns:rdf="http://www.w3.org/1999/02/22-rdf-syntax-ns#" xmlns:sodipodi="http://sodipodi.sourceforge.net/DTD/sodipodi-0.dtd" xmlns:svg="http://www.w3.org/2000/svg" xml:space="preserve" width="1000" height="1000" version="1.1" style="clip-rule:evenodd;fill-rule:evenodd;image-rendering:optimizeQuality;shape-rendering:geometricPrecision;text-rendering:geometricPrecision" viewBox="0 0 1000 1000" id="svg10" sodipodi:docname="൳.svg" inkscape:version="1.0.2 (e86c870879, 2021-01-15)"><svg:metadata id="metadata14"><rdf:RDF><cc:Work rdf:about=""><dc:format>image/svg+xml</dc:format><dc:type rdf:resource="http://purl.org/dc/dcmitype/StillImage" /><dc:title /></cc:Work></rdf:RDF></svg:metadata><sodipodi:namedview pagecolor="#ffffff" bordercolor="#666666" borderopacity="1" objecttolerance="10" gridtolerance="10" guidetolerance="10" inkscape:pageopacity="0" inkscape:pageshadow="2" inkscape:window-width="1920" inkscape:window-height="1007" id="namedview12" showgrid="false" inkscape:zoom="0.9588368" inkscape:cx="187.18615" inkscape:cy="483.13539" inkscape:window-x="1920" inkscape:window-y="0" inkscape:window-maximized="1" inkscape:current-layer="svg10" showguides="true" inkscape:guide-bbox="true" inkscape:document-rotation="0" inkscape:snap-to-guides="true" inkscape:pagecheckerboard="0"><sodipodi:guide position="0,1000" orientation="0,1" id="guide16" inkscape:label="" inkscape:locked="true" inkscape:color="rgb(0,0,255)" /><sodipodi:guide position="1763.3122,2036.1693" orientation="1000,0" id="guide18" /><sodipodi:guide position="0,200" orientation="0,1" id="guide20" inkscape:label="base" inkscape:locked="true" inkscape:color="rgb(0,0,255)" /><inkscape:grid type="xygrid" id="grid24" originx="-473.37552" originy="-489.69235" /><sodipodi:guide position="0,0" orientation="0,1" id="guide34" inkscape:label="bottom" inkscape:locked="true" inkscape:color="rgb(0,0,255)" /><sodipodi:guide position="225.05109,1693.3186" orientation="0,1" id="guide44" inkscape:label="" inkscape:locked="false" inkscape:color="rgb(0,0,255)" /><sodipodi:guide position="0,900" orientation="0,1" id="guide46" inkscape:label="" inkscape:locked="true" inkscape:color="rgb(0,0,255)" /><sodipodi:guide position="661.03055,469.83468" orientation="-1,0" id="guide841" inkscape:label="width" inkscape:locked="false" inkscape:color="rgb(0,0,255)" /><sodipodi:guide position="0,1000" orientation="0,1000" id="guide860" /><sodipodi:guide position="1000,1000" orientation="1000,0" id="guide862" /><sodipodi:guide position="1000,0" orientation="0,-1000" id="guide864" /><sodipodi:guide position="0,0" orientation="-1000,0" id="guide866" /></sodipodi:namedview>
 <svg:defs id="defs4"><inkscape:path-effect effect="fillet_chamfer" id="path-effect860" is_visible="true" lpeversion="1" satellites_param="F,0,0,1,0,0,0,1 @ F,0,0,1,0,0,0,1 @ F,0,0,1,0,0,0,1 @ F,0,0,1,0,0,0,1 @ F,0,0,1,0,0,0,1 @ F,0,0,1,0,0,0,1 @ F,0,0,1,0,0,0,1 @ F,0,0,1,0,0,0,1 @ F,0,0,1,0,0,0,1 @ F,0,0,1,0,0,0,1 @ F,0,0,1,0,0,0,1 @ F,0,0,1,0,0,0,1 @ F,0,0,1,0,0,0,1 @ F,0,1,1,0,14.443641,0,1 @ F,0,1,1,0,14.443641,0,1 @ F,0,0,1,0,0,0,1 @ F,0,0,1,0,0,0,1 @ F,0,0,1,0,0,0,1 @ F,0,0,1,0,0,0,1 @ F,0,0,1,0,0,0,1 @ F,0,0,1,0,0,0,1 @ F,0,0,1,0,0,0,1 @ F,0,0,1,0,0,0,1 @ F,0,0,1,0,0,0,1 @ F,0,0,1,0,0,0,1 @ F,0,0,1,0,0,0,1" unit="px" method="auto" mode="F" radius="0" chamfer_steps="1" flexible="false" use_knot_distance="true" apply_no_radius="true" apply_with_radius="true" only_selected="true" hide_knots="false" /><inkscape:path-effect effect="spiro" id="path-effect861" is_visible="true" lpeversion="1" /><inkscape:path-effect effect="spiro" id="path-effect873" is_visible="true" lpeversion="1" /><inkscape:path-effect effect="spiro" id="path-effect859" is_visible="true" lpeversion="1" /><inkscape:path-effect effect="spiro" id="path-effect862" is_visible="true" lpeversion="1" /><inkscape:path-effect effect="spiro" id="path-effect1521" is_visible="true" lpeversion="1" /><inkscape:path-effect effect="spiro" id="path-effect858" is_visible="true" lpeversion="1" /><inkscape:path-effect effect="spiro" id="path-effect854" is_visible="true" lpeversion="1" />
  <svg:style type="text/css" id="style2">
   
    .fil0 {fill:#EF7F1A;fill-rule:nonzero}
   
  </svg:style>
 <inkscape:path-effect effect="spiro" id="path-effect1214" is_visible="true" lpeversion="1" /><inkscape:path-effect effect="spiro" id="path-effect1195" is_visible="true" lpeversion="1" /><inkscape:path-effect effect="spiro" id="path-effect992" is_visible="true" lpeversion="1" /><inkscape:path-effect effect="spiro" id="path-effect287" is_visible="true" lpeversion="1" /><inkscape:path-effect effect="spiro" id="path-effect1032" is_visible="true" lpeversion="1" /><inkscape:path-effect effect="spiro" id="path-effect1218" is_visible="true" lpeversion="1" /><inkscape:path-effect effect="spiro" id="path-effect309" is_visible="true" lpeversion="1" /><inkscape:path-effect effect="spiro" id="path-effect1176" is_visible="true" lpeversion="1" /><inkscape:path-effect effect="spiro" id="path-effect1026" is_visible="true" lpeversion="1" /><inkscape:path-effect effect="spiro" id="path-effect1030" is_visible="true" lpeversion="1" /></svg:defs>
 
<svg:g id="path859"><svg:path style="color:#000000;clip-rule:nonzero;fill:#1a5fb4;fill-rule:nonzero;stroke-linecap:round;stroke-linejoin:round;-inkscape-stroke:none;shape-rendering:auto" d="m 651.03711,313.67773 c -3.09868,-0.18575 -6.12706,-0.0373 -8.9668,0.41407 -37.82381,6.01163 -75.9237,10.30387 -114.13672,12.85547 -90.17654,6.02135 -182.67565,2.29488 -276.82617,6.5996 -53.39414,2.44128 -112.47247,7.63532 -165.150389,37.89649 C 49.664979,392.29156 20.41377,423.37326 0.71289062,459.5332 -18.953122,495.62914 -28.855354,536.10446 -29.626953,576.51953 c -1.141842,59.80773 17.983844,119.87488 56.023437,167.04102 38.147138,47.29948 94.161466,79.57699 155.310546,86.3789 63.4852,7.06177 128.47214,-14.14173 175.24609,-57.92578 46.81784,-43.82512 72.43601,-107.69811 68.17188,-171.87695 -2.66739,-40.14658 -16.61419,-78.28414 -37.67188,-111.18945 -1.89354,-2.95891 -3.90207,-5.82151 -5.90234,-8.69141 76.83173,4.39637 153.17573,17.82941 226.83008,40.125 22.82285,6.9086 50.0833,-9.22549 54.69531,-32.85938 l 24.63281,-126.22461 c 2.21557,-11.35347 -0.42944,-25.98943 -10.1582,-35.98828 -7.29657,-7.49913 -17.21762,-11.07359 -26.51367,-11.63086 z m -27.61914,63.80664 -15.67578,80.33399 C 527.0993,434.99835 443.74352,421.87824 359.96875,419.12695 c -11.99261,-0.39385 -24.14902,-0.47574 -36.36133,-0.3457 -5.12927,-4.12913 -10.32685,-8.15608 -15.65625,-11.96094 -7.16694,-5.11675 -14.54812,-9.91915 -22.07226,-14.48047 80.50905,-2.23631 162.68057,0.0416 246.05273,-5.52539 30.59279,-2.04277 61.11005,-5.16773 91.48633,-9.33008 z m -424.83789,39.74219 c 9.42767,3.26185 18.67332,7.05162 27.72656,11.25977 -9.27909,1.92899 -18.51238,4.21669 -27.69727,6.88086 -6.28239,-2.43148 -12.6549,-4.62493 -19.09179,-6.61133 z M 69.525391,463.98828 a 30.003,30.003 0 0 0 23.839843,11.98047 c 6.165288,-0.0572 12.340536,0.17924 18.503906,0.64844 -8.47146,6.44491 -16.561947,13.62756 -23.974609,21.83593 -22.378477,24.78069 -37.855885,57.84371 -36.498047,94.16797 1.320583,35.32763 18.482358,67.14668 43.833985,89.35743 25.080861,21.97352 56.548321,33.55788 88.054691,36.33398 36.13533,3.18397 74.22575,-5.16009 104.88671,-28.33789 15.31321,-11.57584 28.23797,-26.51788 37.15235,-44.1582 8.93861,-17.68829 13.56555,-37.59281 12.62109,-57.95313 -1.11793,-24.1 -9.82042,-46.0107 -21.91992,-64.41992 -11.04364,-16.80274 -24.71619,-30.40998 -38.82227,-42.0625 8.19843,-0.83554 16.4724,-1.45237 24.81446,-1.87305 13.3665,12.68904 25.21788,26.65415 34.89844,41.78125 16.15535,25.24481 26.4323,54.08467 28.34179,82.82422 3.00771,45.26856 -16.04566,92.9628 -49.30664,124.09766 -33.30485,31.17592 -82.08018,47.1623 -127.61133,42.09765 -44.12093,-4.90778 -86.8918,-29.26663 -115.238278,-64.41406 -28.454021,-35.28077 -43.620221,-82.13822 -42.740234,-128.23047 0.598056,-31.32517 8.376367,-62.51121 23.039063,-89.42383 4.650925,-8.53653 10.109462,-16.6266 16.125,-24.25195 z M 195.26758,499.625 c 14.48878,7.10516 28.29184,15.54486 40.83398,25.54687 12.11724,9.66318 22.45728,20.07536 29.78516,31.22461 7.24014,11.01577 11.60937,23.17434 12.12305,34.24805 0.43153,9.30295 -1.78175,19.29632 -6.23633,28.11133 -4.47882,8.86297 -11.40798,17.02431 -19.78321,23.35547 -16.7159,12.6362 -40.41368,18.46245 -63.43945,16.43359 -20.23694,-1.78313 -39.79384,-9.44108 -53.7832,-21.69726 -13.71861,-12.01897 -22.79429,-29.88885 -23.41406,-46.46875 -0.64439,-17.23844 7.52497,-36.71158 21.07031,-51.71094 13.86306,-15.35119 33.50441,-27.36535 55.55664,-36.39844 2.3847,-0.97683 4.86891,-1.7395 7.28711,-2.64453 z" id="path23615" /></svg:g></svg:svg>
